icons/run.svg

<svg width="24" height="24" viewBox="0 0 24 24" fill="none" xmlns="http://www.w3.org/2000/svg">
<path d="M13 5C13.2652 5 13.5196 4.89464 13.7071 4.70711C13.8946 4.51957 14 4.26522 14 4C14 3.73478 13.8946 3.48043 13.7071 3.29289C13.5196 3.10536 13.2652 3 13 3C12.7348 3 12.4804 3.10536 12.2929 3.29289C12.1054 3.48043 12 3.73478 12 4C12 4.26522 12.1054 4.51957 12.2929 4.70711C12.4804 4.89464 12.7348 5 13 5V5Z" stroke="white" stroke-width="2" stroke-linecap="round" stroke-linejoin="round"/>
<path d="M4 17L9 18L9.75 16.5" stroke="white" stroke-width="2" stroke-linecap="round" stroke-linejoin="round"/>
<path d="M15 21V17L11 14L12 8" stroke="white" stroke-width="2" stroke-linecap="round" stroke-linejoin="round"/>
<path d="M7 12V9L12 8L15 11L18 12" stroke="white" stroke-width="2" stroke-linecap="round" stroke-linejoin="round"/>
</svg>

<svg
  width="24"
  height="24"
  viewBox="0 0 24 24"
  xmlns="http://www.w3.org/2000/svg"
  fill="none"
  stroke="currentColor"
  stroke-width="2"
  stroke-linecap="round"
  stroke-linejoin="round"
>
  <path d="M13 5a1 1 0 1 0 0-2 1 1 0 0 0 0 2z" />
  <path d="M4 17l5 1 .75-1.5" />
  <path d="M15 21v-4l-4-3 1-6" />
  <path d="M7 12V9l5-1 3 3 3 1" />
</svg>
